svgs/regular/bitcoin-sign.svg

<svg xmlns="http://www.w3.org/2000/svg" viewBox="0 0 320 512"><!--! Font Awesome Pro 6.3.0 by @fontawesome - https://fontawesome.com License - https://fontawesome.com/license (Commercial License) Copyright 2023 Fonticons, Inc. --><path d="M64 24C64 10.7 74.7 0 88 0s24 10.7 24 24V64h32V24c0-13.3 10.7-24 24-24s24 10.7 24 24V64.7c54 6 96 51.8 96 107.3c0 27.5-10.3 52.6-27.2 71.6C295.9 261.5 320 297.9 320 340c0 59.6-48.4 108-108 108H192v40c0 13.3-10.7 24-24 24s-24-10.7-24-24V448H112v40c0 13.3-10.7 24-24 24s-24-10.7-24-24V448H41.7C18.7 448 0 429.3 0 406.3V280v-6.3V232 101.6C0 80.8 16.8 64 37.6 64H64V24zM48 232H180c33.1 0 60-26.9 60-60s-26.9-60-60-60H48V232zm132 48H48V400H212c33.1 0 60-26.9 60-60s-26.9-60-60-60H180z"/></svg>

<svg xmlns="http://www.w3.org/2000/svg" viewBox="0 0 320 512"><!--! Font Awesome Pro 6.2.0 by @fontawesome - https://fontawesome.com License - https://fontawesome.com/license (Commercial License) Copyright 2022 Fonticons, Inc. --><path d="M64 24C64 10.75 74.75 0 88 0C101.3 0 112 10.75 112 24V64H144V24C144 10.75 154.7 0 168 0C181.3 0 192 10.75 192 24V64.66C246 70.63 288 116.4 288 172C288 199.5 277.7 224.6 260.8 243.6C295.9 261.5 320 297.9 320 340C320 399.6 271.6 448 212 448H192V488C192 501.3 181.3 512 168 512C154.7 512 144 501.3 144 488V448H112V488C112 501.3 101.3 512 88 512C74.75 512 64 501.3 64 488V448H41.74C18.69 448 0 429.3 0 406.3V101.6C0 80.82 16.82 64 37.57 64H64V24zM180 232C213.1 232 240 205.1 240 172C240 138.9 213.1 112 180 112H48V232H180zM48 280V400H212C245.1 400 272 373.1 272 340C272 306.9 245.1 280 212 280H48z"/></svg>
